public/images/blog-vk.svg

<svg width="34" height="34" viewBox="0 0 34 34" fill="none" xmlns="http://www.w3.org/2000/svg">
<g id="vk-1-logo-svgrepo-com 1" clip-path="url(#clip0_993_8410)">
<g id="Base">
<path id="Vector" d="M11.7604 -0.109375H22.2575C31.8456 -0.109375 34.1089 2.17181 34.1089 11.7599V22.257C34.1089 31.8451 31.8277 34.1084 22.2396 34.1084H11.7426C2.15448 34.1084 -0.108887 31.8273 -0.108887 22.2391V11.7421C-0.108887 2.17181 2.1723 -0.109375 11.7604 -0.109375Z" fill="#5181B8"/>
<g id="Clip path group">
<mask id="mask0_993_8410" style="mask-type:luminance" maskUnits="userSpaceOnUse" x="-1" y="-1" width="36" height="36">
<g id="SVGID_2_">
<path id="Vector_2" d="M11.7604 -0.109375H22.2575C31.8456 -0.109375 34.1089 2.17181 34.1089 11.7599V22.257C34.1089 31.8451 31.8277 34.1084 22.2396 34.1084H11.7426C2.15448 34.1084 -0.108887 31.8273 -0.108887 22.2391V11.7421C-0.108887 2.17181 2.1723 -0.109375 11.7604 -0.109375Z" fill="white"/>
</g>
</mask>
<g mask="url(#mask0_993_8410)">
<path id="Vector_3" d="M-1 -1H35V35H-1V-1Z" fill="#5181B8"/>
</g>
</g>
</g>
<path id="Logo" fill-rule="evenodd" clip-rule="evenodd" d="M27.9071 11.6745C28.0675 11.1399 27.9071 10.7656 27.1586 10.7656H24.6635C24.022 10.7656 23.7368 11.1042 23.5764 11.4785C23.5764 11.4785 22.3111 14.5795 20.5111 16.5755C19.923 17.1636 19.6734 17.3419 19.3527 17.3419C19.1923 17.3419 18.9606 17.1636 18.9606 16.629V11.6745C18.9606 11.033 18.7824 10.7656 18.2477 10.7656H14.3269C13.9348 10.7656 13.6853 11.0686 13.6853 11.3359C13.6853 11.9419 14.5764 12.0844 14.6833 13.7597V17.431C14.6833 18.233 14.5408 18.3755 14.22 18.3755C13.3824 18.3755 11.315 15.2745 10.1032 11.7102C9.85365 11.0508 9.62196 10.7656 8.98038 10.7656H6.48533C5.77246 10.7656 5.62988 11.1042 5.62988 11.4785C5.62988 12.1379 6.46751 15.4171 9.5685 19.7478C11.6358 22.7062 14.5408 24.3102 17.1784 24.3102C18.7645 24.3102 18.9606 23.9537 18.9606 23.3478V21.1023C18.9606 20.3894 19.1032 20.2468 19.62 20.2468C19.9942 20.2468 20.618 20.425 22.0972 21.8508C23.7903 23.5438 24.0754 24.3102 25.02 24.3102H27.515C28.2279 24.3102 28.5843 23.9537 28.3705 23.2587C28.1388 22.5636 27.3368 21.5478 26.2675 20.3359C25.6794 19.6409 24.8061 18.9102 24.5566 18.5359C24.1824 18.0547 24.2893 17.8409 24.5566 17.431C24.5566 17.4132 27.6041 13.1359 27.9071 11.6745Z" fill="white"/>
</g>
<defs>
<clipPath id="clip0_993_8410">
<rect width="34" height="34" fill="white"/>
</clipPath>
</defs>
</svg>

<svg width="34" height="34" fill="none" xmlns="http://www.w3.org/2000/svg"><g clip-path="url(#clip0_993_8410)"><path d="M11.76-.11h10.498c9.588 0 11.85 2.282 11.85 11.87v10.497c0 9.588-2.28 11.851-11.868 11.851H11.743C2.154 34.108-.11 31.828-.11 22.24V11.742c0-9.57 2.281-11.851 11.87-11.851z" fill="#5181B8"/><mask id="a" style="mask-type:luminance" maskUnits="userSpaceOnUse" x="-1" y="-1" width="36" height="36"><path d="M11.76-.11h10.498c9.588 0 11.85 2.282 11.85 11.87v10.497c0 9.588-2.28 11.851-11.868 11.851H11.743C2.154 34.108-.11 31.828-.11 22.24V11.742c0-9.57 2.281-11.851 11.87-11.851z" fill="#fff"/></mask><g mask="url(#a)"><path d="M-1-1h36v36H-1V-1z" fill="#5181B8"/></g><path fill-rule="evenodd" clip-rule="evenodd" d="M27.907 11.675c.16-.535 0-.91-.748-.91h-2.495c-.642 0-.927.34-1.088.713 0 0-1.265 3.101-3.065 5.098-.588.588-.838.766-1.158.766-.16 0-.392-.178-.392-.713v-4.955c0-.641-.179-.908-.713-.908h-3.921c-.392 0-.642.303-.642.57 0 .606.891.748.998 2.424v3.671c0 .802-.142.944-.463.944-.838 0-2.905-3.1-4.117-6.665-.25-.66-.481-.944-1.123-.944H6.485c-.713 0-.855.338-.855.713 0 .659.838 3.938 3.939 8.269 2.067 2.958 4.972 4.562 7.61 4.562 1.586 0 1.782-.356 1.782-.962v-2.246c0-.713.142-.855.659-.855.374 0 .998.178 2.477 1.604 1.693 1.693 1.978 2.46 2.923 2.46h2.495c.713 0 1.07-.357.855-1.052-.231-.695-1.033-1.711-2.103-2.923-.588-.695-1.46-1.426-1.71-1.8-.375-.481-.268-.695 0-1.105 0-.018 3.047-4.295 3.35-5.757z" fill="#fff"/></g><defs><clipPath id="clip0_993_8410"><path fill="#fff" d="M0 0h34v34H0z"/></clipPath></defs></svg>
